src/pos-icons/thermometer-minus.svg

<svg height="24" viewBox="0 0 24 24" width="24" xmlns="http://www.w3.org/2000/svg"><path d="m22 11h-8v2h8zm-11 2v-8c0-1.66-1.34-3-3-3s-3 1.34-3 3v8c-2.21 1.66-2.66 4.79-1 7s4.79 2.66 7 1 2.66-4.79 1-7c-.28-.38-.62-.72-1-1m-3-9c.55 0 1 .45 1 1v3h-2v-3c0-.55.45-1 1-1z"/></svg>

<?xml version="1.0" encoding="UTF-8"?><!DOCTYPE svg PUBLIC "-//W3C//DTD SVG 1.1//EN" "http://www.w3.org/Graphics/SVG/1.1/DTD/svg11.dtd"><svg xmlns="http://www.w3.org/2000/svg" xmlns:xlink="http://www.w3.org/1999/xlink" version="1.1" id="mdi-thermometer-minus" width="24" height="24" viewBox="0 0 24 24"><path d="M22 11H14V13H22V11M11 13V5C11 3.34 9.66 2 8 2S5 3.34 5 5V13C2.79 14.66 2.34 17.79 4 20S8.79 22.66 11 21 13.66 16.21 12 14C11.72 13.62 11.38 13.28 11 13M8 4C8.55 4 9 4.45 9 5V8H7V5C7 4.45 7.45 4 8 4Z" /></svg>
